!!!OTL: ACH IN TRAUERN MUSS ICH LEBEN
!!!ARE: Europa, Mitteleuropa, Deutschland, Hessen, Frankfurt
!!!ARD: Europa%Mitteleuropa%Deutschland@Hessen#Frankfurt:
!!!ARL: 50.11/8.68:
!!!SCT: E0722
!!!YEM: Copyright 1995, estate of Helmut Schaffrath.
**kern
*ICvox
*Ivox
*M3/4
*k[b-]
*F:
{8c
8c
=1
4.f
8g
8a
8b-
=2
8a
8g
4f}
{8a
8b-
=3
8.cc
16a
8dd
8cc
8b-
8a
=4
4a
4g}
{8f
8f
=5
4.dd
8dd
8ff
8dd
=6
8dd
8cc
4cc}
{8a
8a
=7
8cc
8b-
4b-
8cc
16cc
16b-
=8
2a}
{8f
8f
=9
4.dd
8dd
8ff
8dd
=10
8dd
8cc
4cc}
{8a
8a
=11
8cc
8b-
4b-
8cc
16cc
16b-
=12
2a}
==
!!!AGN: Liebes - Lied, Leid, Klage, Abschied
!!!ONB: ESAC (Essen Associative Code) Database: ERK2
!!!AMT: simple triple
!!!AIN: vox
!!!EED: Helmut Schaffrath
!!!EEV: 1.0
*-
